tools/download-figma-icons/icons/outlined-medium/s-pedelec.svg

<svg width="24" height="24" viewBox="0 0 24 24" fill="none" xmlns="http://www.w3.org/2000/svg">
<path fill-rule="evenodd" clip-rule="evenodd" d="M19.2241 18.2158C17.4181 18.2158 15.9481 16.7466 15.9481 14.9399C15.9481 13.7406 16.6036 12.7004 17.5688 12.1296L18.1628 14.0496C17.9596 14.2919 17.8328 14.5994 17.8328 14.9399C17.8328 15.7086 18.4561 16.3311 19.2241 16.3311C19.992 16.3311 20.6153 15.7086 20.6153 14.9399C20.6153 14.3016 20.1825 13.7691 19.596 13.6056L19.0021 11.6871C19.0763 11.6819 19.1476 11.6646 19.2241 11.6646C21.03 11.6646 22.5 13.1339 22.5 14.9399C22.5 16.7466 21.03 18.2158 19.2241 18.2158ZM11.6169 13.6499L11.0709 12.1806L12.2079 11.7539C12.3076 11.7164 12.3609 11.6181 12.3234 11.5379L11.3776 9.4859C11.3439 9.41315 11.2464 9.3824 11.1556 9.41615L10.1791 9.7829L9.78089 8.71191H15.3773L11.6169 13.6499ZM4.77545 18.2068C2.96946 18.2068 1.50023 16.7376 1.50023 14.9316C1.50023 13.1249 2.96946 11.6556 4.77545 11.6556C5.04544 11.6556 5.30419 11.6984 5.55544 11.7599L3.9497 14.7426C3.82445 14.9751 3.83045 15.2563 3.9662 15.4828C4.1012 15.7093 4.3457 15.8481 4.6097 15.8481H7.90441C7.50467 17.2063 6.26118 18.2068 4.77545 18.2068ZM6.88818 12.4491C7.45217 12.9306 7.85492 13.5898 7.99217 14.3481H5.86519L6.88818 12.4491ZM8.47441 9.50316L10.2766 14.3481H9.51165C9.3489 13.0199 8.63941 11.8619 7.61492 11.1006L8.47441 9.50316ZM19.224 10.1646C18.9938 10.1646 18.7688 10.1864 18.5468 10.2179L17.2216 5.93694C16.9553 5.07745 16.1716 4.49995 15.2716 4.49995H13.7439V5.99994H15.2716C15.5101 5.99994 15.7178 6.15294 15.7883 6.38094L16.0463 7.21193H9.22365L8.94765 6.47168L10.0471 6.17544C10.0471 6.17544 11.0889 5.90394 10.6546 5.3782H6.35493L6.21243 6.59018H7.39142L7.77842 7.63192L6.28593 10.4039C5.81043 10.2456 5.30344 10.1556 4.77545 10.1556C2.14222 10.1556 0.000244138 12.2976 0.000244138 14.9316C0.000244138 17.5648 2.14222 19.7068 4.77545 19.7068C7.09517 19.7068 9.03165 18.0441 9.46065 15.8481H10.9089C11.4676 15.8481 11.9904 15.6006 12.3616 15.1476L16.7273 9.4139L17.1143 10.6619C15.5371 11.4434 14.4481 13.0649 14.4481 14.9398C14.4481 17.5738 16.5908 19.7158 19.224 19.7158C21.8573 19.7158 24 17.5738 24 14.9398C24 12.3066 21.8573 10.1646 19.224 10.1646Z" fill="black"/>
</svg>

<svg xmlns="http://www.w3.org/2000/svg" width="24" height="24" fill="none" viewBox="0 0 24 24"><path fill="currentColor" fill-rule="evenodd" d="M19.224 18.216a3.28 3.28 0 0 1-3.276-3.276c0-1.2.656-2.24 1.62-2.81l.595 1.92a1.38 1.38 0 0 0-.33.89 1.391 1.391 0 0 0 2.782 0c0-.638-.432-1.17-1.019-1.334l-.594-1.919c.074-.005.146-.022.222-.022A3.28 3.28 0 0 1 22.5 14.94a3.28 3.28 0 0 1-3.276 3.276m-7.607-4.566-.546-1.47 1.137-.426c.1-.038.153-.136.115-.216l-.945-2.052c-.034-.073-.132-.104-.222-.07l-.977.367-.398-1.071h5.596zm-6.842 4.557A3.28 3.28 0 0 1 1.5 14.932a3.28 3.28 0 0 1 3.275-3.276c.27 0 .53.042.78.104L3.95 14.743a.75.75 0 0 0 .66 1.105h3.294c-.4 1.358-1.643 2.359-3.129 2.359m2.113-5.758a3.26 3.26 0 0 1 1.104 1.9H5.865zm1.586-2.946 1.803 4.845h-.765a4.77 4.77 0 0 0-1.897-3.247zm10.75.662c-.23 0-.455.021-.677.053l-1.325-4.281a2.03 2.03 0 0 0-1.95-1.437h-1.528V6h1.528c.238 0 .446.153.516.38l.258.832H9.224l-.276-.74 1.1-.297s1.04-.271.607-.797h-4.3L6.212 6.59h1.18l.386 1.042-1.492 2.772a4.8 4.8 0 0 0-1.51-.248A4.78 4.78 0 0 0 0 14.932a4.78 4.78 0 0 0 4.775 4.775 4.78 4.78 0 0 0 4.686-3.859h1.448c.559 0 1.081-.247 1.453-.7l4.365-5.734.387 1.248a4.78 4.78 0 0 0-2.666 4.278 4.78 4.78 0 0 0 4.776 4.776A4.78 4.78 0 0 0 24 14.94a4.78 4.78 0 0 0-4.776-4.775" clip-rule="evenodd"/></svg>
